X:1
T:Bereite dich, Zion
T:Johann Sebastian Bach
T:BWV 248: Weihnachtsoratorium, Arie No. 4
%%score 1 { ( 2 4 ) | ( 3 5 ) }
L:1/8
M:3/8
K:C
V:1 treble nm="Alto"
V:2 treble nm="Piano"
V:4 treble 
V:3 bass 
V:5 bass 
V:1
 z | z3 | z3 | z3 | z3 | z3 | z3 | z3 | z3 | z3 | z3 | z3 | z3 | z3 | z3 | z3 |"^Alt." z z E | %17
 A c B | c ^G A | G/=F/ E/D/ G | E C c | B c/B/ A/^G/ | A B c | d c/B/ c |{c} B2 B | B E z | %26
 z z A | A D z | z z G | C E D |{F} E{D} C z | z3 | z z A | D F E |{F} F{D} D z | z3 | z z E | %37
 A c B | c ^G A | =G/F/ E/D/ G | E C c | B c/B/ A/^G/ | A B c | d c/B/ c | B2 d | ^c e G | %46
 F E/D/ c | B d F | E D/C/ E | d c B | e A B | E c/B/ A/ ^G/ | A2 A | A D z | z z G | G ^C z | %56
 z z A | ^G B d | d ^c z | z3 | z z F | E G _B | _B A z | z3 | z z d | ^c e G | F E/D/ c | B d F | %68
 E D/C/ E | d c B | e A B | E c/B/ A/^G/ | A2 z | z3 | z3 | z3 | z3 | z3 | z3 | z3 | z3 | z3 | z3 | %83
 z3 | z3 | z3 | z3 | z3 | z3 | z E C | G2 G | z ^F G | A^F D | BG D | A^F D | z ^G A | B^G E | %97
 cA E | B^G E | A B c | B A G | ^F E/^D/ E | ^D B, z | z B B | B3- | B A/^G/ ^F/E/ | c3/2 B/ A | %107
 A3- | A3- | A G/^F/ E/D/ | B A/G/ (A/B/ | c/ B/) (A/G/) (^F/E/) | (^D/E/) (^F/G/) (A/F/) | %113
 G E ^D | E E z | z3 | z3 | z3 | z3 | z3 | z3 | z3 | z3 | z B ^G | A (c/B/A) | z A ^F | G D B- | %127
 BA/G/ ^F/E/ | E/^D/ A2- | AB/4A/4G/ A/4G/4^F/ | G3- | GA/4G/4=F/ G/4F/4E/ | F/E/F/D/F/A/ | %133
 d/B/G/B/A/G/ | c C z | D/E/ F/ G/ A/B/ | c/B/ A/G/ c | E{G} F{E} D | C C!D.C.! |] %139
V:2
"^f" E | (Ac)TB | (c^G)A | (=G/F/E/D/)G | T[CE]{D}C[Ec] | B(c/B/A/^G/) | A[^GB][Ac] | %7
 ([Bd]c/B/)[Ac] |{c} B>Be/d/ | ^c/e/c/A/E/=G/ | F/A/D/A/d/=c/ | B/d/B/G/D/F/ | E/G/C/G/c/B/ | %13
 (A/^G/)(A/G/)A/f/ | e/^d/e/d/e/^g/ | acB | A2"^mp" E | (Ac)TB | (c^G)A | (=G/F/E/D/)G | E{D}Cc | %21
 B(c/B/A/^G/) | A[^GB][Ac] | ([Bd]c/B/)[Ac] | [E^GB]2 [^FAB] | B z/ B/e/d/ | ^c/e/c/A/E/=G/ | %27
 =F/A/D/A/d/=c/ | B/d/B/G/D/F/ | E/G/C G | [EG]"^A""^A" z"^f" C | ([DG][EGB])T[^FA] | %32
 [GB][B,G]"^mp" z | z _BA | F z"^f" D | ([EA][FAc])[^GB] | [Ac]"^mp"(A/c/)(B/d/) | %37
 c/e/c/A/[E^G]/B/ | ([EA]/c/e/)d/[Ec]/B/ | A-[Ad]T[FB] | [Ec]/G/E/G/[Ac]/e/ | %41
 [ABd]/(f/[ce]/[Bd]/[Ac]/[^GB]/) | A3 | [B,E][E^G][EA-] | A/^F/^G/B/-[Bd] | ([A^c]e)=G | TFE/D/c | %47
 (Bd)F | TED/C/E | (dc)B | (eA)B | E(c/B/A/^G/) | A z"^B""^B" z | D>"^mp"F_B/A/ | G/_B/G/E/_B,/D/ | %55
 ^C/E/A,/C/E/G/ | F/A/F/D/ F | EFB | BA"^f" G | ^FA[Ac] | [Ac][GB]"^mp" [D=F] | [CE]2 [EG] | %62
 GF"^f" d | ^ceG | F/A/F/D/A,/D/ | E/G/E/^C/A,/C/ | D/F/A,/D/F/A/ | B/d/B/G/D/F/ | E/G/C/E/ e | %69
 dcB | (e/^d/)(e/d/)e/^g/ | [ea][A,C]"^C""^C"B, | A,2"^f" E | (Ac)TB | (c^G)A | (=G/F/E/D/).G | %76
 TE{D}Cc | B(c/B/A/^G/) | A[^GB]c | [Bd]c/B/[Ac] |{c} B>Be/d/ | ^c/e/c/A/E/=G/ | F/A/D/A/d/=c/ | %83
 B/d/B/G/D/F/ | E/G/C/G/c/B/ | (A/^G/)(A/G/)A/f/ | e/^d/e/d/e/^g/ | [ea][A,C]T[^G,B,] | %88
 !fermata!A,3 |"^D""^D" z/ z/ z/ z/ z/ z/ | ([EG]3 | G)^FG | A2 D | B3 | A2 (A | A)^GA | B2 E | %97
 c3 | B3 | ABc | BAG | ^F3- | F z/ ^F/B/A/ | G/B/G/E/^D/^F/ | (E/G/)(^F/A/)(G/d/) | %105
 (e/d/c/B/A/^G/) | (A/E/C/)E/A/=G/ | ^F/A/G/D/^C/E/ | (D/^F/)(E/G/)(F/A/) | (d/c/B/A/G/^F/) | %110
 (G/D/B,/)D/G- | G^F/G/A- | A/G/^F/E/^D/F/ | E[CG]T^F |"^E""^E" E2"^f" B, | (EG)T^F | (G^D)E | %117
 (=D/C/B,/A,/).[^F,D] | B,G,G | ^FG/F/E/^D/ | E[^D^F][EG] | [^FA]G/F/G | [^D^F]3/2"^mp" ^f/b/a/ | %123
 ^g/b/g/e/B/d/ | c/e/A/e/a/=g/ | ^f/a/f/d/A/c/ | B/d/G/d/g/^f/ | e/g/e/c/G/B/ | %128
 A/c/^F/A/[Ac^f]/e/ | [A^d]/^f/d/B/[^D^F]/A/ | [EG]/B/E/B/e/d/ | ^c/e/c/A/[^CE]/G/ | %132
 =F/A/D/A/d/c/ | B/d/B/G/D/G/ | G,[EG]c- | cd/e/f- | fBc- | cDTB | c2 |] %139
V:3
 z | z z E,, | A,,B,,C, | D,B,,G,, | C,E,A,, | D,2 E, | C,(D,/C,/B,,/A,,/) | ^G,,A,,/G,,/A,, | %8
 E,,E,[^G,B,] | A,3- | A, z A, | G,3- | G, z G, | F,E,D, | C,A,,B,, | C,D,E, | A,,2 z | z z E,, | %18
 A,,B,,C, | D,B,,G,, | C,E,A,, | D,2 E, | C,(D,/C,/B,,/A,,/) | ^G,,A,,/G,,/A,, | E,,E,^D, | %25
 E, z [^G,B,] | A,3- | A, z A, | G,3- | [C,G,]CB, | C(E,/D,/)(E,/C,/) | B,,C,D, | %32
 G,,(G,/=F,/)(G,/E,/) | F,G,A, | D,(F,/E,/)(F,/E,/) | C,D,E, | A,,2 z | z z E,, | A,, z A,, | %39
 D,F,G, | C, z A,, | D, z E, | (F,/E,/D,/C,/B,,/A,,/) | ^G,,E,,A,, | E,,E,^G,, | A,, z A, | %46
 A,2 A, | G, z G, | G,2 G, | F,E,D, | C,F,D, | E,D,E, | F,,F,/E,/D,/C,/ | [_B,,F,] z z | %54
 [E,,E,] z z | [A,,E,] z z | [D,,D,] z D,- | D,(^G,,/^F,,/)(G,,/E,,/) | A,,>B,,^C,/A,,/ | %59
 D,(^F,,/E,,/)(F,,/D,,/) | G,,>A,,B,,/G,,/ | C,E,,/D,,/(E,,/C,,/) | F,,(F,/E,/)(F,/D,/) | %63
 E,^C,[A,,A,] | [D,A,]D,,F,, | A,, z A,, | D, z D,, | G,, z G, | G, z C,, | F,,E,D, | C, z B,, | %71
 C,[D,F,]E, | A,,2 z | z z E,, | A,,B,,C, | [D,A,]G,G,, | C,E,A,, | D,2 E, | C,(D,/C,/B,,/A,,/) | %79
 ^G,,A,,/G,,/A,, | E,,E,[^G,B,] | A,3- | A, z A, | G,3- | G, z G, | F,E,D, | C,A,,B,, | C,D,E, | %88
 !fermata!A,,/C,/E,/A,/E,/C,/ | A,,2 z | z (E,/D,/C,/B,,/) | (A,,/B,,/C,/B,,/A,,/G,,/) | %92
 (^F,,/A,,/D,/A,,/F,,/D,,/) | (G,,/B,,/D,/B,,/G,,/D,,/) | (^F,,/A,,/D,/C,/B,,/A,,/) | %95
 (B,,/E,/D,/C,/B,,/A,,/) | (^G,,/B,,/E,/B,,/G,,/E,,/) | (A,,/C,/E,/C,/A,,/E,,/) | %98
 (^G,,/B,,/E,/D,/C,/B,,/) | (C,/E,/D,/C,/B,,/A,,/) | ^D, z E, | (A,/G,/)(A,/B,/)(C/A,/) | z B,2- | %103
 B,2 A, | G, B,2 | [C,E,]=D,E, | A,, z/ A, z/ | A,2 G, | A,3 | [B,,D,][=C,E,][D,A,] | %110
 [G,,G,]^F,,E,, | A,,B,,C, | B,,^D,B,, | E,A,,[B,,A,] | [E,G,]/^F,/G,/A,/B,/A,/ | G,E,[B,,B,] | %116
 [E,B,]^F,G,- | G,^F, z | G,,B,,E, | A,,2 B,, | (G,,A,,/G,,/^F,,/E,,/) | ^D,,E,,E, | B, B,2- | %123
 B, z z | z A,2- | A, z z | z G,2- | G, z z | z A,,^F,, | B,, z z | z E,2- | E, z z | z D,,D,- | %133
 D,E,[F,B,] | (E,/G,/F,/E,/D,/C,/) | F,E,D, | G,F,E, | A,[F,A,]G, | C,2 |] %139
V:4
 x | z z ^G | ADE | A,G,B, | x3 | F2 D | E3 | E3 | [E^G]2 E | E3 | F z D | D3 | E z C | C2 A | %14
 Ac=d | [Ae][FA][D^G] | C2 x | z z ^G | ADE | A,G,B, | C z E | F2 D | E3 | E3 | x3 | [E^G] z E | %26
 E3 | F z D | D3 | E2 D | x3 | x3 | x2 ^C | D2 ^C | D z x | x3 | x3 | x3 | x3 | x3 | x3 | x3 | %42
 (A/=G/F/E/D/C/) | x3 | E z E | E z E | D z F | F z D | C x2 | A2 [E^G] | [EG]CF | E3 | C z z | %53
 x3 | D x2 | x3 | A, z A,/C/ | B,/D/F E | E2 [A,E] | [A,D]2 D | D2 x | x3 | C2 A | G2 ^C | x3 | %65
 x3 | A, x D | D x2 | x2 G/_B/ | (A/^G/)(A/G/)A/f/ | A z =d | x3 | x3 | z z ^G | ADE | x B,2 | %76
 C x E | F2 D | E3 | E3 | [E^G]2 E | E3 | F z D | D3 | E z C | C2 A | Ac=d | x3 | x3 | x3 | x3 | %91
 C D2 | D3- | D3 | D2 ^F | =F E2 | E3- | E3 | E3- | E3 | ^F z E | C2 E | ^D x2 | x3 | x3 | x3 | %106
 x3 | x3 | x3 | x3 | x3 | x3 | x3 | x3 | x3 | z z ^D | E x2 | x3 | x2 B, | C2 [A,B,] | B,3 | %121
 B,2 B, | B,3/2 x3/2 | x3 | x3 | x3 | x3 | x3 | x3 | x3 | x3 | x3 | D x F | F z x | x3 | %135
 A/G/F/G/A/B/ | G3 | E x F | E2 |] %139
V:5
 x | x3 | x3 | x3 | x3 | x3 | x3 | x3 | x3 | A,A,,^C, | D, z F, | G,G,,B,, | C, z E, | x3 | x3 | %15
 x3 | x3 | x3 | x3 | x3 | x3 | x3 | x3 | x3 | x3 | x3 | A,A,,^C, | D, z F, | G,G,,B,, | x3 | x3 | %31
 x3 | x3 | x3 | x3 | x3 | x3 | x3 | x3 | x3 | x3 | x3 | x3 | x3 | x3 | x2 ^C, | D,F,D, | G, z B,, | %48
 C,E,C, | x3 | x3 | x3 | x3 | x3 | x3 | x3 | x3 | x3 | x3 | x3 | x3 | x3 | x3 | x3 | x3 | x3 | x3 | %67
 x z B,, | C, z x | x3 | x3 | x3 | x3 | x3 | x3 | x3 | x3 | x3 | x3 | x3 | x3 | A,A,,^C, | %82
 D, z F, | G,G,,B,, | C, z E, | x3 | x3 | x3 | x3 | x3 | x3 | x3 | x3 | x3 | x3 | x3 | x3 | x3 | %98
 x3 | x3 | x3 | x3 | (B,/C/)B,/A,/(G,/^F,/) | E,G,^F, | G,^D,E, | x3 | x z/ A,/^F,/E,/ | D,^F,E, | %108
 ^F,^C,D, | x3 | x3 | x3 | x3 | x3 | x3 | x3 | x A,G, | A,,D,D,, | D,2 x | x3 | x3 | x3 | %122
 B,,B,^D, | E, z z | z A,C, | D, z z | z B,,G,, | C, z z | x3 | x3 | z G,,E,, | A,, z z | x3 | x3 | %134
 x3 | x3 | x3 | x3 | x2 |] %139

